X:1
T:Annunciation, 76.76.76
T:Annunciation, 76.76.76
T:Rusty Edwards, 1983
T:© 1984 Hope Publishing Company Courtesy of the Cyber Hymnal™
C:Rusty Edwards, 1983
Z:© 1984 Hope Publishing Company
Z:Courtesy of the Cyber Hymnal™
%%score ( 1 2 ) ( 3 4 )
L:1/8
Q:1/4=115
M:4/4
K:Bb
V:1 treble 
V:2 treble 
V:3 bass 
V:4 bass 
V:1
 GA | [DB]2 (AG) ^F2 [DA]2 | [DG]4 [B,D]2 [B,D]2 | [CE]2 [CG]2 [DG]2 [D^F]2 | [DG]6 (GA) | %5
 [DB]2 (AG) [D^F]2 [DA]2 | [DG]4 G2 (Bc) | [Fd]2 [Fd]2 [Fc]2 c2 | [DB]6 [Fd]2 | %9
 [Fc]2 [GB]2 [DA]2 G2 | [D^F]4 [DG]2 [DB]2 | [EA]2 [CG]2 [DG]2 [D^F]2 | [DG]6 |] %13
V:2
 x2 | x2 D2 x4 | x8 | x8 | x6 D2 | x2 D2 x4 | x4 D4 | x6 (FE) | x8 | x6 (EC) | x8 | x8 | x6 |] %13
V:3
 z2 | G,2 (A,B,) (A,B,) [^F,C]2 | [G,B,]4 G,2 G,2 | [C,G,]2 [E,G,]2 [D,A,]2 [D,A,]2 | B,6 (B,A,) | %5
 G,2 (A,B,) (A,B,) [^F,C]2 | B,4 [G,,B,]4 | B,2 B,2 [F,B,]2 [F,,A,]2 | B,6 B,2 | %9
 [A,C]2 [G,D]2 [F,D]2 (B,G,) | [D,A,]4 [G,B,]2 G,2 | [C,G,]2 [E,G,]2 [D,A,]2 [D,A,]2 | [G,B,]6 |] %13
V:4
 x2 | G,,4 D,2 x2 | x8 | x8 | (G,,2 D,2 G,2-) G,2 | G,,4 D,2 x2 | (G,2 D,2) x4 | %7
 (B,,C,) (D,E,) x4 | (B,,2 F,2 B,2) x2 | x6 E,2 | x8 | x8 | x6 |] %13

